X:1
T:A minor Oliver Brownson, 1783 Revised 1797
T:Isaac Watts, 1719 (Psalm 48, Part 2) 66. 86. (S. M.) 
T:Guildford
T:Transcribed from Brownson's New Collection of Sacred Harmony, 1797.
%%score [ 1 2 3 4 ]
L:1/8
M:4/4
K:C
V:1 treble nm="Tr." snm="Tr."
V:2 treble nm="C." snm="C."
V:3 treble-8 nm="T." snm="T."
V:4 bass nm="B." snm="B."
V:1
"^1. Far    as    thy    name  is  known,  The  world         declares     thy     praise;    Thy  saints,  O     Lord, before thy throne, Their" A8 | %1
 A4 B4 | c4 c4 | B4 (A3 G) | (A3 B c2) e2 | (d2 B2) A4 | E8- | E4 B4 | B4 (A2 G2) | c4 c4 | d4 B4 | %11
 G4 B4 |"^1. songs  ___________________________ of          ho    –   nor    raise." (c3 d e3 d | %13
 c>dcB A2) A2 | B6 ^G2 | A8 |] %16
V:2
 E8 | E4 E4 | E4 C4 | D4 E4 | (C3 D E2) FE | D4 D4 | E8- | E4 E4 | E4 E4 | E4 E4 | F4 D4 | %11
 G4 (G2 F2) | E8- | E6 F2 | E6 E2 | E8 |] %16
V:3
"^2. The   God   we   worship now  Will      guide            us       till    we     die,           Will   be    our         God whle here below,  And" A8 | %1
 c4 (A2 G2) | A4 A4 | B4 c4 | (e3 d c2) cB | (A2 G2) A4 | B8- | B4 e4 | (B2 G2) c4 | A4 (A2 G2) | %10
 A4 d4 | B4 (G2 E2) | %12
"^2. ours ____________________________   a     –     bove      the     sky." (A3 B c3 d | %13
 e>fed c2) dc | B6 B2 | A8 |] %16
V:4
 A,8 | A,4 E,4 | A,,4 A,4 | G,4 E,4 | C,6 C,2 | (D,2 G,2) F,4 | E,8- | E,4 E,4 | E,4 C,4 | %9
 C,4 (A,,2 E,2) | D,4 D,4 | E,4 G,4 | (A,8 | A,2 G,2 C2) B,A, | E,6 E,2 | A,,8 |] %16

